X: 743
T: Aintin Marie
R: jig
M: 6/8
K: Ddorian
A2D FED|AdB cBA|G2C EDC|EDE GED|
A2D FED|AGA d2d|f2d edc|Adc d3:|
ABc d2d|f2d edc|GAB c2c|e2c dcB|
ABc d2d|f2d edc|ege fed|ege fed:|

